X:1
T:London Pride - Oddington
M:2/2
L:1/8
S:Bacon (Benfield MS, 1925)
R: Rag Morris
Z: Mackin, the internet and rag. 
W: Morris Formula (A2B)3
W: Yeah, it's in a weird Key, enjoy.
W: Prewarning, there are mysterious breaks. 
K:Edor
[P:A]"Em"B2 Bc d2B2|"D"AGFE D4 |"Em"E2B2 "B7"BAGF|[1 EFGF EFGA :|[2 "Em" E4E4||
P:B
|:"Em" B2 Bc d2B2|"A"edcB "D"A4 |"Em"B2 Bc d2 .B2 |"C"e4 "Em"B4|
B2 Bc d2B2|"D"AGFE D4 |"Em"E2B2 "B7"BAGF|"Em"E4 E4|:|
r:24
